packages/icons/src/components/Icon/assets/small-solid/shield-check.svg

<svg width="16" height="16" viewBox="0 0 16 16" fill="none" xmlns="http://www.w3.org/2000/svg">
<path d="M6.97559 1.20752C7.285 0.930586 7.75406 0.930586 8.06348 1.20752C9.49962 2.49286 11.316 3.35976 13.3223 3.61768C13.7185 3.66872 14.0189 3.9996 14.0322 4.39893C14.0365 4.52689 14.0391 4.65574 14.0391 4.78467C14.0389 9.18726 11.5449 13.006 7.89648 14.9077C7.66045 15.0307 7.37861 15.0307 7.14258 14.9077C3.49413 13.006 1.00015 9.18725 1 4.78467C1 4.65574 1.00258 4.52688 1.00684 4.39893C1.02012 3.9996 1.32055 3.66873 1.7168 3.61768C3.7231 3.35976 5.53944 2.49285 6.97559 1.20752ZM10.4678 6.04443C10.1139 5.76662 9.60124 5.82832 9.32324 6.18213L6.86133 9.31689L5.60547 8.23975C5.26374 7.94684 4.74896 7.98689 4.45605 8.32861C4.16318 8.67033 4.20226 9.18512 4.54395 9.47803L6.44629 11.1079C6.61482 11.2522 6.83488 11.3209 7.05566 11.2993C7.27667 11.2776 7.47993 11.1672 7.61719 10.9927L10.6055 7.18896C10.8833 6.83507 10.8216 6.32243 10.4678 6.04443Z" />
</svg>

<svg xmlns="http://www.w3.org/2000/svg" width="16" height="16" fill="none" viewBox="0 0 16 16">
    <path d="M6.976 1.208a.816.816 0 0 1 1.087 0 9.74 9.74 0 0 0 5.26 2.41.815.815 0 0 1 .71.78q.006.194.006.387c0 4.402-2.494 8.221-6.143 10.123a.82.82 0 0 1-.753 0 11.41 11.41 0 0 1-6.136-10.51.814.814 0 0 1 .71-.78 9.74 9.74 0 0 0 5.259-2.41m3.492 4.836a.816.816 0 0 0-1.145.138L6.861 9.317 5.605 8.24a.815.815 0 0 0-1.061 1.238l1.902 1.63a.814.814 0 0 0 1.171-.115l2.988-3.804a.816.816 0 0 0-.137-1.145"/>
</svg>
